public/images/mapIcon.svg

<svg fill="none" height="18" viewBox="0 0 18 18" width="18" xmlns="http://www.w3.org/2000/svg" xmlns:xlink="http://www.w3.org/1999/xlink"><clipPath id="a"><path d="m0 0h18v18h-18z"/></clipPath><g clip-path="url(#a)"><path d="m9.0002 1.80005c-3.483 0-6.3 2.817-6.3 6.3 0 4.72495 6.3 9.89995 6.3 9.89995s6.3-5.175 6.3-9.89995c0-3.483-2.817-6.3-6.3-6.3zm0 8.54995c-1.242 0-2.25-1.00795-2.25-2.24995s1.008-2.25 2.25-2.25 2.25 1.008 2.25 2.25-1.008 2.24995-2.25 2.24995z" fill="#ff2e84" stroke="#000" stroke-width=".8"/></g></svg>

<svg width="18" height="18" viewBox="0 0 18 18" fill="none" xmlns="http://www.w3.org/2000/svg">
<g clip-path="url(#clip0_207_425)">
<path d="M9.0002 1.80005C5.5172 1.80005 2.7002 4.61705 2.7002 8.10005C2.7002 12.825 9.0002 18 9.0002 18C9.0002 18 15.3002 12.825 15.3002 8.10005C15.3002 4.61705 12.4832 1.80005 9.0002 1.80005ZM9.0002 10.35C7.7582 10.35 6.7502 9.34205 6.7502 8.10005C6.7502 6.85805 7.7582 5.85005 9.0002 5.85005C10.2422 5.85005 11.2502 6.85805 11.2502 8.10005C11.2502 9.34205 10.2422 10.35 9.0002 10.35Z" fill="#FF2E84" stroke="black" stroke-width="0.8"/>
</g>
<defs>
<clipPath id="clip0_207_425">
<rect width="18" height="18" fill="white"/>
</clipPath>
</defs>
</svg>
